apps/scalable/krita.svg

<svg xmlns="http://www.w3.org/2000/svg" style="isolation:isolate" width="256" height="256"><defs><filter id="a" width="270.648" height="254.338" x="-7.32" y="2.95" filterUnits="userSpaceOnUse"><feGaussianBlur xmlns="http://www.w3.org/2000/svg" in="SourceGraphic" stdDeviation="4.294"/><feOffset xmlns="http://www.w3.org/2000/svg" dy="4" result="pf_100_offsetBlur"/><feFlood xmlns="http://www.w3.org/2000/svg" flood-opacity=".4"/><feComposite xmlns="http://www.w3.org/2000/svg" in2="pf_100_offsetBlur" operator="in" result="pf_100_dropShadow"/><feBlend xmlns="http://www.w3.org/2000/svg" in="SourceGraphic" in2="pf_100_dropShadow"/></filter></defs><g filter="url(#a)"><linearGradient id="b" x1=".361" x2=".361" y1=".01" y2=".967" gradientTransform="matrix(244.648 0 0 228.338 5.676 11.947)" gradientUnits="userSpaceOnUse"><stop offset="0%" stop-color="#fdfdfb"/><stop offset="100%" stop-color="#d8e4f7"/><stop offset="100%" stop-color="#f0e9df"/></linearGradient><path fill="url(#b)" d="M165.685 11.947c74.055 0 84.639 10.557 84.639 84.544v59.251c0 73.986-10.584 84.543-84.639 84.543h-75.37c-74.055 0-84.639-10.557-84.639-84.543V96.491c0-73.987 10.584-84.544 84.639-84.544h75.37z"/></g><linearGradient id="c" x1=".503" x2=".506" y1=".787" y2=".052" gradientTransform="matrix(244.648 0 0 228.338 5.676 11.95)" gradientUnits="userSpaceOnUse"><stop offset="0%" stop-opacity="0" stop-color="#fe50fe"/><stop offset="100%" stop-opacity=".893" stop-color="#fe50fe"/></linearGradient><path fill="url(#c)" d="M165.685 11.95c74.055 0 84.639 10.557 84.639 84.544v59.251c0 73.986-10.584 84.543-84.639 84.543h-75.37c-74.055 0-84.639-10.557-84.639-84.543V96.494c0-73.987 10.584-84.544 84.639-84.544h75.37z"/><linearGradient id="d" x1=".417" x2=".003" y1=".455" y2=".962" gradientTransform="matrix(244.648 0 0 228.338 5.676 11.95)" gradientUnits="userSpaceOnUse"><stop offset="0%" stop-opacity=".028" stop-color="#6ffff9"/><stop offset="100%" stop-color="#6ffff9"/></linearGradient><path fill="url(#d)" d="M165.685 11.95c74.055 0 84.639 10.557 84.639 84.544v59.251c0 73.986-10.584 84.543-84.639 84.543h-75.37c-74.055 0-84.639-10.557-84.639-84.543V96.494c0-73.987 10.584-84.544 84.639-84.544h75.37z"/><linearGradient id="e" x1=".417" x2=".995" y1=".455" y2=".954" gradientTransform="matrix(244.648 0 0 228.338 5.676 11.95)" gradientUnits="userSpaceOnUse"><stop offset="0%" stop-opacity="0" stop-color="#fff06f"/><stop offset="100%" stop-color="#fff06f"/></linearGradient><path fill="url(#e)" d="M165.685 11.95c74.055 0 84.639 10.557 84.639 84.544v59.251c0 73.986-10.584 84.543-84.639 84.543h-75.37c-74.055 0-84.639-10.557-84.639-84.543V96.494c0-73.987 10.584-84.544 84.639-84.544h75.37z"/><linearGradient id="f" x1=".915" x2=".067" y1=".644" y2=".42" gradientTransform="matrix(126.086 0 0 63.527 73.011 148.734)" gradientUnits="userSpaceOnUse"><stop offset="0%" stop-color="#5d99e4"/><stop offset="100%" stop-opacity=".014" stop-color="#5d9ce6"/></linearGradient><path fill="url(#f)" d="M73.128 148.734c-.051.615-.09 1.23-.117 1.846 0 34.065 34.883 61.681 77.914 61.681 14.319-.027 27.602-2.522 39.807-8.45l8.364-12.952-9.214-13.735-7.218-7.993-3.797-5.459c-12.447 10.886-32.731 12.676-49.903 12.688-22.467-.016-43.432-10.388-55.836-27.626z"/><path d="M148.933 144.108l29.934 21.564 11.207-14.613s-.426 0-1.56-1.276c-1.135-1.277-28.799-26.813-28.799-26.813l-11.207 1.277-4.54 7.235.041 9.795 4.924 2.831z" opacity=".5"/><path d="M141.743 143.48c-4.703-1.11-12.811-4.566-15.471-6.594-1.158-.884-2.304-1.606-2.546-1.606s-1.866-1.104-3.608-2.454a283.298 283.298 0 0 0-5.795-4.36c-3.27-2.374-27.968-27.736-35.981-36.949-2.386-2.743-26.743-28.076-37.349-38.846C28.631 40.118 26.767 37.432 27.988 33.93c.91-2.612 3.899-4.238 6.791-3.696 1.173.22 4.008 1.619 6.3 3.109 8.477 5.511 41.829 26.441 53.233 33.408 6.477 3.956 13.543 8.29 15.702 9.632 6.447 4.005 17.418 10.484 17.753 10.484.482 0 8.734 5.823 11.858 8.368 0 0 2.891 1.936 8.738 7.738 3.034 3.698 6.204 7.169 8.269 10.488.643.911 5.265 7.029 5.723 9.406.137.713.285 1.161.512 1.61.252 2.975-1.096-.69-2.355-.218-4.507.646-8.581 4.562-10.973 7.988-2.096 3.139-2.562 4.41-2.562 6.995 0 2.524.318 3.515 1.479 4.329 1.433 1.003.895 1.118-.843.813-1.249-.03-3.891-.437-5.87-.904z" opacity=".5"/><path fill="#ADADAD" d="M148.933 142.108l29.934 21.564 11.207-14.613s-.426 0-1.56-1.276c-1.135-1.277-28.799-26.813-28.799-26.813l-11.207 1.277-4.54 7.235.041 9.795 4.924 2.831z"/><path d="M191.482 201.155c2.541-5.598 1.183-10.257-5.836-20.021-6.175-8.589-8.107-12.947-8.162-18.414-.051-4.999 1.471-8.46 5.134-11.676 8.428-7.4 19.341-3.897 25.262 8.108 5.66 11.476 3.143 25.158-6.579 35.769-3.515 3.835-9.668 9.015-10.71 9.015-.204 0 .197-1.252.891-2.781zm-49.739-59.675c-4.703-1.11-12.811-4.566-15.471-6.594-1.158-.884-2.304-1.606-2.546-1.606s-1.866-1.104-3.608-2.454a283.298 283.298 0 0 0-5.795-4.36c-3.27-2.374-27.968-27.736-35.981-36.949-2.386-2.743-26.743-28.076-37.349-38.846C28.631 38.118 26.767 35.432 27.988 31.93c.91-2.612 3.899-4.238 6.791-3.696 1.173.22 4.008 1.619 6.3 3.109 8.477 5.511 41.829 26.441 53.233 33.408 6.477 3.956 13.543 8.29 15.702 9.632 6.447 4.005 17.418 10.484 17.753 10.484.482 0 8.734 5.823 11.858 8.368 0 0 2.891 1.936 8.738 7.738 3.034 3.698 6.204 7.169 8.269 10.488.643.911 5.265 7.029 5.723 9.406.137.713.285 1.161.512 1.61.252 2.975-1.096-.69-2.355-.218-4.507.646-8.581 4.562-10.973 7.988-2.096 3.139-2.562 4.41-2.562 6.995 0 2.524.318 3.515 1.479 4.329 1.433 1.003.895 1.118-.843.813-1.249-.03-3.891-.437-5.87-.904z"/><g opacity=".4"><linearGradient id="g" x1=".517" x2=".517" y2="1"><stop offset="0%" stop-color="#fff"/><stop offset="12.5%" stop-opacity=".098" stop-color="#fff"/><stop offset="92.5%" stop-opacity=".098"/><stop offset="100%" stop-opacity=".498"/></linearGradient><path fill="none" stroke="url(#g)" stroke-linecap="round" stroke-linejoin="round" stroke-width="4.077" d="M165.685 11.947c74.055 0 84.639 10.557 84.639 84.544v59.251c0 73.986-10.584 84.543-84.639 84.543h-75.37c-74.055 0-84.639-10.557-84.639-84.543V96.491c0-73.987 10.584-84.544 84.639-84.544h75.37z" vector-effect="non-scaling-stroke"/></g></svg>

<svg xmlns="http://www.w3.org/2000/svg" style="isolation:isolate" width="256" height="256" viewBox="0 0 256 256">
 <defs>
  <filter id="gsLIpEHefkE88VyZUaMdqHsrARJxwvuU" width="270.648" height="254.338" x="-7.32" y="2.95" filterUnits="userSpaceOnUse">
   <feGaussianBlur xmlns="http://www.w3.org/2000/svg" in="SourceGraphic" stdDeviation="4.294"/>
   <feOffset xmlns="http://www.w3.org/2000/svg" dx="0" dy="4" result="pf_100_offsetBlur"/>
   <feFlood xmlns="http://www.w3.org/2000/svg" flood-opacity=".4"/>
   <feComposite xmlns="http://www.w3.org/2000/svg" in2="pf_100_offsetBlur" operator="in" result="pf_100_dropShadow"/>
   <feBlend xmlns="http://www.w3.org/2000/svg" in="SourceGraphic" in2="pf_100_dropShadow" mode="normal"/>
  </filter>
 </defs>
 <g filter="url(#gsLIpEHefkE88VyZUaMdqHsrARJxwvuU)">
  <linearGradient id="_lgradient_236" x1=".361" x2=".361" y1=".01" y2=".967" gradientTransform="matrix(244.648,0,0,228.338,5.676,11.947)" gradientUnits="userSpaceOnUse">
   <stop offset="0%" style="stop-color:rgb(253,253,251)"/>
   <stop offset="100%" style="stop-color:rgb(216,228,247)"/>
   <stop offset="100%" style="stop-color:rgb(240,233,223)"/>
  </linearGradient>
  <path fill="url(#_lgradient_236)" d="M 165.685 11.947 C 239.74 11.947 250.324 22.504 250.324 96.491 L 250.324 155.742 C 250.324 229.728 239.74 240.285 165.685 240.285 L 90.315 240.285 C 16.26 240.285 5.676 229.728 5.676 155.742 L 5.676 96.491 C 5.676 22.504 16.26 11.947 90.315 11.947 L 165.685 11.947 Z"/>
 </g>
 <g>
  <linearGradient id="_lgradient_237" x1=".503" x2=".506" y1=".787" y2=".052" gradientTransform="matrix(244.648,0,0,228.338,5.676,11.95)" gradientUnits="userSpaceOnUse">
   <stop offset="0%" stop-opacity="0" style="stop-color:rgb(254,80,254)"/>
   <stop offset="100%" stop-opacity=".893" style="stop-color:rgb(254,80,254)"/>
  </linearGradient>
  <path fill="url(#_lgradient_237)" d="M 165.685 11.95 C 239.74 11.95 250.324 22.507 250.324 96.494 L 250.324 155.745 C 250.324 229.731 239.74 240.288 165.685 240.288 L 90.315 240.288 C 16.26 240.288 5.676 229.731 5.676 155.745 L 5.676 96.494 C 5.676 22.507 16.26 11.95 90.315 11.95 L 165.685 11.95 Z"/>
  <linearGradient id="_lgradient_238" x1=".417" x2=".003" y1=".455" y2=".962" gradientTransform="matrix(244.648,0,0,228.338,5.676,11.95)" gradientUnits="userSpaceOnUse">
   <stop offset="0%" stop-opacity=".028" style="stop-color:rgb(111,255,249)"/>
   <stop offset="100%" style="stop-color:rgb(111,255,249)"/>
  </linearGradient>
  <path fill="url(#_lgradient_238)" d="M 165.685 11.95 C 239.74 11.95 250.324 22.507 250.324 96.494 L 250.324 155.745 C 250.324 229.731 239.74 240.288 165.685 240.288 L 90.315 240.288 C 16.26 240.288 5.676 229.731 5.676 155.745 L 5.676 96.494 C 5.676 22.507 16.26 11.95 90.315 11.95 L 165.685 11.95 Z"/>
  <linearGradient id="_lgradient_239" x1=".417" x2=".995" y1=".455" y2=".954" gradientTransform="matrix(244.648,0,0,228.338,5.676,11.95)" gradientUnits="userSpaceOnUse">
   <stop offset="0%" stop-opacity="0" style="stop-color:rgb(255,240,111)"/>
   <stop offset="100%" style="stop-color:rgb(255,240,111)"/>
  </linearGradient>
  <path fill="url(#_lgradient_239)" d="M 165.685 11.95 C 239.74 11.95 250.324 22.507 250.324 96.494 L 250.324 155.745 C 250.324 229.731 239.74 240.288 165.685 240.288 L 90.315 240.288 C 16.26 240.288 5.676 229.731 5.676 155.745 L 5.676 96.494 C 5.676 22.507 16.26 11.95 90.315 11.95 L 165.685 11.95 Z"/>
  <linearGradient id="_lgradient_240" x1=".915" x2=".067" y1=".644" y2=".42" gradientTransform="matrix(126.086,0,0,63.527,73.011,148.734)" gradientUnits="userSpaceOnUse">
   <stop offset="0%" style="stop-color:rgb(93,153,228)"/>
   <stop offset="100%" stop-opacity=".014" style="stop-color:rgb(93,156,230)"/>
  </linearGradient>
  <path fill="url(#_lgradient_240)" d="M 73.128 148.734 C 73.077 149.349 73.038 149.964 73.011 150.58 C 73.011 184.645 107.894 212.261 150.925 212.261 C 165.244 212.234 178.527 209.739 190.732 203.811 L 199.096 190.859 L 189.882 177.124 L 182.664 169.131 L 178.867 163.672 C 166.42 174.558 146.136 176.348 128.964 176.36 C 106.497 176.344 85.532 165.972 73.128 148.734 L 73.128 148.734 Z"/>
  <g opacity=".5">
   <path d="M 148.933 144.108 L 178.867 165.672 L 190.074 151.059 C 190.074 151.059 189.648 151.059 188.514 149.783 C 187.379 148.506 159.715 122.97 159.715 122.97 L 148.508 124.247 L 143.968 131.482 L 144.009 141.277 L 148.933 144.108 Z"/>
  </g>
  <g opacity=".5">
   <path d="M 141.743 143.48 C 137.04 142.37 128.932 138.914 126.272 136.886 C 125.114 136.002 123.968 135.28 123.726 135.28 C 123.484 135.28 121.86 134.176 120.118 132.826 C 118.376 131.477 115.769 129.515 114.323 128.466 C 111.053 126.092 86.355 100.73 78.342 91.517 C 75.956 88.774 51.599 63.441 40.993 52.671 C 28.631 40.118 26.767 37.432 27.988 33.93 C 28.898 31.318 31.887 29.692 34.779 30.234 C 35.952 30.454 38.787 31.853 41.079 33.343 C 49.556 38.854 82.908 59.784 94.312 66.751 C 100.789 70.707 107.855 75.041 110.014 76.383 C 116.461 80.388 127.432 86.867 127.767 86.867 C 128.249 86.867 136.501 92.69 139.625 95.235 C 139.625 95.235 142.516 97.171 148.363 102.973 C 151.397 106.671 154.567 110.142 156.632 113.461 C 157.275 114.372 161.897 120.49 162.355 122.867 C 162.492 123.58 162.64 124.028 162.867 124.477 C 163.119 127.452 161.771 123.787 160.512 124.259 C 156.005 124.905 151.931 128.821 149.539 132.247 C 147.443 135.386 146.977 136.657 146.977 139.242 C 146.977 141.766 147.295 142.757 148.456 143.571 C 149.889 144.574 149.351 144.689 147.613 144.384 C 146.364 144.354 143.722 143.947 141.743 143.48 Z"/>
  </g>
  <path fill="#ADADAD" d="M 148.933 142.108 L 178.867 163.672 L 190.074 149.059 C 190.074 149.059 189.648 149.059 188.514 147.783 C 187.379 146.506 159.715 120.97 159.715 120.97 L 148.508 122.247 L 143.968 129.482 L 144.009 139.277 L 148.933 142.108 Z"/>
  <path d="M 191.482 201.155 C 194.023 195.557 192.665 190.898 185.646 181.134 C 179.471 172.545 177.539 168.187 177.484 162.72 C 177.433 157.721 178.955 154.26 182.618 151.044 C 191.046 143.644 201.959 147.147 207.88 159.152 C 213.54 170.628 211.023 184.31 201.301 194.921 C 197.786 198.756 191.633 203.936 190.591 203.936 C 190.387 203.936 190.788 202.684 191.482 201.155 Z M 141.743 141.48 C 137.04 140.37 128.932 136.914 126.272 134.886 C 125.114 134.002 123.968 133.28 123.726 133.28 C 123.484 133.28 121.86 132.176 120.118 130.826 C 118.376 129.477 115.769 127.515 114.323 126.466 C 111.053 124.092 86.355 98.73 78.342 89.517 C 75.956 86.774 51.599 61.441 40.993 50.671 C 28.631 38.118 26.767 35.432 27.988 31.93 C 28.898 29.318 31.887 27.692 34.779 28.234 C 35.952 28.454 38.787 29.853 41.079 31.343 C 49.556 36.854 82.908 57.784 94.312 64.751 C 100.789 68.707 107.855 73.041 110.014 74.383 C 116.461 78.388 127.432 84.867 127.767 84.867 C 128.249 84.867 136.501 90.69 139.625 93.235 C 139.625 93.235 142.516 95.171 148.363 100.973 C 151.397 104.671 154.567 108.142 156.632 111.461 C 157.275 112.372 161.897 118.49 162.355 120.867 C 162.492 121.58 162.64 122.028 162.867 122.477 C 163.119 125.452 161.771 121.787 160.512 122.259 C 156.005 122.905 151.931 126.821 149.539 130.247 C 147.443 133.386 146.977 134.657 146.977 137.242 C 146.977 139.766 147.295 140.757 148.456 141.571 C 149.889 142.574 149.351 142.689 147.613 142.384 C 146.364 142.354 143.722 141.947 141.743 141.48 Z"/>
 </g>
 <g opacity=".4">
  <linearGradient id="_lgradient_241" x1=".517" x2=".517" y1="0" y2="1">
   <stop offset="0%" style="stop-color:rgb(255,255,255)"/>
   <stop offset="12.5%" stop-opacity=".098" style="stop-color:rgb(255,255,255)"/>
   <stop offset="92.5%" stop-opacity=".098" style="stop-color:rgb(0,0,0)"/>
   <stop offset="100%" stop-opacity=".498" style="stop-color:rgb(0,0,0)"/>
  </linearGradient>
  <path fill="none" stroke="url(#_lgradient_241)" stroke-linecap="round" stroke-linejoin="round" stroke-width="4.077" d="M 165.685 11.947 C 239.74 11.947 250.324 22.504 250.324 96.491 L 250.324 155.742 C 250.324 229.728 239.74 240.285 165.685 240.285 L 90.315 240.285 C 16.26 240.285 5.676 229.728 5.676 155.742 L 5.676 96.491 C 5.676 22.504 16.26 11.947 90.315 11.947 L 165.685 11.947 Z" vector-effect="non-scaling-stroke"/>
 </g>
</svg>
